svg/fluentui-system-icons/ic_fluent_document_heart_pulse_20_regular.svg

<svg width="20" height="20" viewBox="0 0 20 20" fill="none" xmlns="http://www.w3.org/2000/svg">
<path d="M6 2C4.89543 2 4 2.89543 4 4V9.00288C4.33787 9.01593 4.67434 9.07322 5 9.17476V4C5 3.44772 5.44772 3 6 3H10V6.5C10 7.32843 10.6716 8 11.5 8H15V16C15 16.5523 14.5523 17 14 17H9.45051L8.45051 18H14C15.1046 18 16 17.1046 16 16V7.41421C16 7.01639 15.842 6.63486 15.5607 6.35355L11.6464 2.43934C11.3651 2.15804 10.9836 2 10.5858 2H6ZM14.7929 7H11.5C11.2239 7 11 6.77614 11 6.5V3.20711L14.7929 7ZM5.15903 11.542C4.43635 10.8193 3.26467 10.8193 2.542 11.542C2.14262 11.9414 1.96395 12.4779 2.00601 13H1.0039C0.963267 12.2215 1.24027 11.4295 1.8349 10.8349C2.94809 9.7217 4.75294 9.7217 5.86613 10.8349L6.00253 10.9713L6.13893 10.8349C7.25213 9.7217 9.05697 9.7217 10.1702 10.8349C10.7648 11.4295 11.0418 12.2215 11.0012 13H9.99905C10.0411 12.4779 9.86245 11.9414 9.46306 11.542C8.74039 10.8193 7.56871 10.8193 6.84604 11.542L6.35609 12.032C6.16082 12.2272 5.84424 12.2272 5.64898 12.032L5.15903 11.542ZM2.96876 16H4.38298L6.00253 17.6196L7.62209 16H9.0363L6.3561 18.6802C6.28287 18.7534 6.19257 18.7992 6.09801 18.8175C6.03239 18.8302 5.96472 18.8297 5.89927 18.8159C5.80754 18.7967 5.72018 18.7514 5.64896 18.6802L2.96876 16ZM4.50244 12C4.69183 12 4.86496 12.107 4.94966 12.2764L6.08785 14.5528L7.10244 13.2C7.18941 13.084 7.32242 13.0115 7.467 13.0013C7.61158 12.991 7.7535 13.044 7.856 13.1464L8.70955 14H10C10.2761 14 10.5 14.2239 10.5 14.5C10.5 14.7762 10.2761 15 10 15H8.50244C8.36983 15 8.24265 14.9473 8.14889 14.8536L7.55654 14.2612L6.40244 15.8C6.29847 15.9386 6.13013 16.0135 5.95754 15.998C5.78495 15.9824 5.63272 15.8786 5.55523 15.7236L4.50244 13.618L3.94966 14.7236C3.86496 14.893 3.69183 15 3.50244 15L2 15C1.72385 15 1.5 14.7761 1.5 14.5C1.5 14.2239 1.72386 14 2 14L3.19342 14L4.05523 12.2764C4.13992 12.107 4.31305 12 4.50244 12Z" fill="#212121"/>
</svg>

<svg xmlns="http://www.w3.org/2000/svg" width="20" height="20"><path d="M6 2a2 2 0 0 0-2 2v5.003c.338.013.674.07 1 .172V4a1 1 0 0 1 1-1h4v3.5A1.5 1.5 0 0 0 11.5 8H15v8a1 1 0 0 1-1 1H9.45l-1 1H14a2 2 0 0 0 2-2V7.414a1.5 1.5 0 0 0-.44-1.06l-3.914-3.915A1.5 1.5 0 0 0 10.586 2H6Zm8.793 5H11.5a.5.5 0 0 1-.5-.5V3.207L14.793 7Zm-9.634 4.542A1.85 1.85 0 0 0 2.006 13H1.004a2.85 2.85 0 0 1 4.862-2.165l.137.136.136-.136A2.85 2.85 0 0 1 11 13h-1a1.85 1.85 0 0 0-3.153-1.458l-.49.49a.5.5 0 0 1-.707 0l-.49-.49ZM2.969 16h1.414l1.62 1.62L7.623 16h1.413l-2.68 2.68a.498.498 0 0 1-.707 0L2.969 16Zm1.533-4a.5.5 0 0 1 .448.276l1.138 2.277L7.102 13.2a.5.5 0 0 1 .754-.054L8.71 14H10a.5.5 0 0 1 0 1H8.502a.5.5 0 0 1-.353-.146l-.592-.593L6.402 15.8a.5.5 0 0 1-.847-.076l-1.053-2.106-.552 1.106a.5.5 0 0 1-.448.276H2a.5.5 0 0 1 0-1h1.193l.862-1.724A.5.5 0 0 1 4.502 12Z"/></svg>
